OldSummonersRiftV2_Winter_NightVersion/Map11/ASSETS/Maps/KitPieces/SRX/winterrift_recolor.CUBE
#Created by: Adobe Photoshop Export Color Lookup Plugin
TITLE "GdV3CiFXIAA4Xv3.jfif"
#LUT size
LUT_3D_SIZE 5
#data domain
#LUT data points
DOMAIN_MIN 0.000000 0.000000 0.000000
DOMAIN_MAX 0.903226 0.903226 0.903226
0.000000 0.000000 0.000000
0.251221 0.007172 0.011841
0.508636 0.011597 0.032043
0.739410 0.014648 0.063507
0.907135 0.016876 0.101379
0.021973 0.250214 0.043884
0.269562 0.258850 0.059326
0.529236 0.261414 0.082733
0.761505 0.260529 0.116638
0.927734 0.256195 0.158875
0.049683 0.496155 0.116760
0.281555 0.512085 0.136169
0.536987 0.517822 0.152466
0.764679 0.521057 0.174408
0.926941 0.522430 0.202393
0.089203 0.716309 0.186127
0.297516 0.738190 0.214905
0.547455 0.745148 0.230103
0.771301 0.749451 0.247223
0.930359 0.752258 0.268646
0.128174 0.883423 0.256500
0.317627 0.903015 0.293457
0.559998 0.909424 0.310059
0.779175 0.913147 0.325562
0.934906 0.915863 0.343445
0.000031 0.002930 0.254242
0.236481 0.010834 0.301910
0.502991 0.013550 0.307800
0.738617 0.018188 0.318420
0.908783 0.023010 0.332092
0.015747 0.253876 0.312408
0.257629 0.265625 0.326996
0.526031 0.266449 0.336761
0.761993 0.266815 0.353943
0.929840 0.264160 0.378479
0.029266 0.514648 0.345154
0.276276 0.524231 0.356750
0.538940 0.527740 0.365723
0.768677 0.531006 0.379059
0.930786 0.533142 0.396759
0.057281 0.741486 0.382629
0.297882 0.751678 0.396881
0.553986 0.756622 0.407288
0.778320 0.760498 0.419800
0.936005 0.763458 0.435181
0.117401 0.898499 0.415710
0.322571 0.913849 0.445496
0.570129 0.918945 0.458435
0.788666 0.922272 0.470795
0.942017 0.924896 0.484985
0.000031 0.010132 0.488983
0.181274 0.032745 0.603149
0.483978 0.019562 0.597473
0.729462 0.021393 0.601532
0.904663 0.025299 0.608978
0.013000 0.253510 0.592163
0.205322 0.286774 0.624695
0.505890 0.274109 0.619598
0.752258 0.271423 0.629822
0.925140 0.268250 0.646576
0.028351 0.514862 0.614624
0.228088 0.544128 0.643158
0.521240 0.535461 0.638580
0.760529 0.536011 0.645477
0.927246 0.537231 0.656555
0.042297 0.748505 0.641876
0.255585 0.767517 0.664490
0.538666 0.763855 0.662750
0.772003 0.765503 0.669220
0.933502 0.767731 0.678711
0.055237 0.915955 0.674194
0.286835 0.924622 0.689331
0.557404 0.924835 0.691528
0.784058 0.926758 0.698242
0.940582 0.928772 0.707123
0.000031 0.023438 0.676758
0.061249 0.084290 0.857452
0.444611 0.034088 0.839783
0.711670 0.028290 0.837921
0.896637 0.029572 0.840271
0.008911 0.253693 0.824371
0.090302 0.335419 0.875977
0.465210 0.290314 0.852997
0.732727 0.280731 0.854675
0.916016 0.274750 0.863342
0.026031 0.514404 0.839111
0.106903 0.592682 0.888550
0.482971 0.550262 0.864594
0.743164 0.544006 0.864410
0.919250 0.542694 0.869263
0.041046 0.748444 0.854767
0.121857 0.809143 0.902191
0.502472 0.775513 0.877472
0.755920 0.772064 0.877258
0.926270 0.772247 0.881195
0.055084 0.916290 0.872009
0.135895 0.957397 0.917511
0.523621 0.932892 0.891724
0.769409 0.931488 0.892090
0.934082 0.932159 0.895721
0.000031 0.042603 0.809387
0.042999 0.094116 0.997406
0.353760 0.073914 0.998688
0.681976 0.040588 0.997009
0.883850 0.036987 0.996063
0.003326 0.254761 0.978790
0.096527 0.337524 1.000000
0.389954 0.326935 1.000000
0.696899 0.301483 1.000000
0.892975 0.297943 1.000000
0.022797 0.514099 0.989838
0.137482 0.586761 1.000000
0.424103 0.580505 1.000000
0.711456 0.564606 1.000000
0.896332 0.566650 1.000000
0.040100 0.747772 1.000000
0.196381 0.791870 1.000000
0.476776 0.789642 1.000000
0.738037 0.784943 1.000000
0.905273 0.792419 1.000000
0.093079 0.908051 1.000000
0.297699 0.925903 1.000000
0.567780 0.926331 1.000000
0.792999 0.928619 1.000000
0.931183 0.939606 1.000000
