OldSummonersRiftV2_Winter_NightVersion/Map11/ASSETS/Maps/KitPieces/SRX/winterrift_recolor.CUBE
#Created by: Adobe Photoshop Export Color Lookup Plugin
TITLE "GdV3CiFXIAA4Xv3.jfif"
#LUT size
LUT_3D_SIZE 8
#data domain
#LUT data points
DOMAIN_MIN 0.000000 0.000000 0.000000
DOMAIN_MAX 0.903226 0.903226 0.903226
0.000000 0.000000 0.000000
0.141388 0.004913 0.006409
0.288025 0.007904 0.014099
0.436066 0.010376 0.025482
0.579224 0.012604 0.039642
0.709656 0.014191 0.058807
0.820129 0.015533 0.079895
0.907135 0.016876 0.101379
0.013397 0.142761 0.021027
0.154114 0.147644 0.029785
0.302673 0.149353 0.039215
0.453857 0.149811 0.053314
0.600861 0.148285 0.073395
0.734955 0.144806 0.099182
0.848114 0.137939 0.131104
0.939270 0.126495 0.169891
0.025177 0.285797 0.053619
0.162445 0.292664 0.062256
0.308411 0.295807 0.071838
0.457001 0.297882 0.084106
0.600952 0.298798 0.099609
0.731659 0.298737 0.118164
0.840851 0.297760 0.138885
0.926819 0.295685 0.162201
0.041168 0.426819 0.095825
0.170837 0.437042 0.107361
0.314575 0.441681 0.115753
0.461731 0.444885 0.125641
0.604614 0.446899 0.137482
0.733917 0.448212 0.151764
0.841553 0.448883 0.167938
0.926361 0.448853 0.186401
0.061157 0.562592 0.136230
0.181580 0.576294 0.151398
0.321960 0.582184 0.160797
0.467834 0.585999 0.169495
0.609406 0.588715 0.179626
0.737457 0.590759 0.191193
0.843903 0.592316 0.204651
0.927734 0.593262 0.219910
0.083527 0.687439 0.176270
0.194092 0.703400 0.195709
0.330719 0.710175 0.205780
0.474548 0.714355 0.214478
0.614838 0.717255 0.223450
0.741608 0.719666 0.233612
0.846832 0.721466 0.245392
0.929840 0.722900 0.258423
0.106201 0.795898 0.216125
0.208038 0.811859 0.239349
0.340302 0.818756 0.251068
0.482269 0.822632 0.259949
0.620667 0.825531 0.268585
0.746216 0.827728 0.277863
0.850098 0.829559 0.288239
0.932220 0.831085 0.299957
0.128174 0.883423 0.256500
0.223877 0.897583 0.282471
0.351318 0.904266 0.296204
0.490753 0.907990 0.305634
0.627380 0.910645 0.314331
0.751251 0.912689 0.323334
0.853668 0.914398 0.332886
0.934906 0.915863 0.343445
0.000031 0.000824 0.149200
0.132019 0.007019 0.174164
0.283051 0.008575 0.177277
0.433197 0.011078 0.182892
0.578033 0.013885 0.189941
0.710114 0.016541 0.198547
0.821655 0.019196 0.208252
0.909149 0.021698 0.219574
0.010254 0.143188 0.180786
0.145599 0.150726 0.190155
0.297760 0.151398 0.195435
0.451233 0.151672 0.204224
0.600189 0.150665 0.216644
0.736084 0.147858 0.233368
0.849365 0.142731 0.254730
0.941071 0.132080 0.285187
0.017944 0.291260 0.198578
0.155762 0.298035 0.206482
0.306061 0.299805 0.211334
0.456909 0.301636 0.218628
0.602325 0.303009 0.227966
0.733826 0.303650 0.239624
0.843292 0.303406 0.253510
0.929443 0.302002 0.270050
0.027069 0.439514 0.221863
0.167786 0.444946 0.228241
0.315399 0.448181 0.233643
0.464478 0.450958 0.240540
0.608063 0.453156 0.248810
0.737671 0.454865 0.258759
0.845123 0.455872 0.270721
0.929626 0.456421 0.284393
0.049561 0.576782 0.243927
0.180908 0.585876 0.254395
0.325226 0.590393 0.261047
0.472565 0.593719 0.268036
0.614655 0.596375 0.275787
0.742584 0.598541 0.285095
0.848297 0.600250 0.295715
0.931641 0.601532 0.307678
0.077454 0.700287 0.268250
0.195862 0.713165 0.284149
0.335510 0.718872 0.292755
0.481201 0.722443 0.299835
0.621490 0.725281 0.307556
0.747894 0.727631 0.316223
0.852051 0.729492 0.326111
0.934326 0.731079 0.337189
0.105560 0.806305 0.295380
0.212006 0.820496 0.316895
0.347168 0.826447 0.327240
0.490051 0.830078 0.335114
0.628693 0.832703 0.342865
0.753357 0.834930 0.351105
0.855927 0.836700 0.360321
0.937164 0.838257 0.370514
0.131012 0.891663 0.326477
0.229248 0.904968 0.351410
0.359406 0.910980 0.364044
0.499359 0.914490 0.372864
0.636139 0.916931 0.380646
0.759155 0.918915 0.388855
0.860016 0.920593 0.397339
0.940308 0.922028 0.407013
0.000031 0.004211 0.286255
0.104065 0.017914 0.348358
0.271881 0.012024 0.345032
0.426300 0.013031 0.347504
0.573547 0.015228 0.351929
0.707275 0.017792 0.357513
0.820099 0.020508 0.364044
0.908447 0.023254 0.371521
0.008698 0.143005 0.342377
0.119354 0.161102 0.362946
0.286316 0.155487 0.360748
0.444031 0.154236 0.366913
0.594849 0.153015 0.376373
0.732361 0.150269 0.389862
0.847534 0.144836 0.408447
0.939758 0.134857 0.434570
0.017487 0.291260 0.356537
0.131226 0.308533 0.374878
0.295197 0.304443 0.372955
0.450470 0.304657 0.377289
0.598053 0.305481 0.384094
0.731506 0.305756 0.393127
0.842041 0.305695 0.403992
0.928864 0.304504 0.417328
0.025482 0.441254 0.373596
0.145447 0.455719 0.389008
0.305695 0.453491 0.388397
0.458984 0.454681 0.392578
0.604919 0.456268 0.398651
0.736023 0.457642 0.406342
0.844330 0.458832 0.415344
0.929413 0.459534 0.425995
0.032928 0.586121 0.394257
0.161774 0.596161 0.405670
0.316650 0.596344 0.407104
0.468231 0.598145 0.411560
0.612427 0.600220 0.417389
0.741791 0.602112 0.424469
0.848267 0.603790 0.432739
0.931976 0.605103 0.442230
0.039886 0.717621 0.418304
0.179474 0.722687 0.424896
0.328827 0.724884 0.428772
0.478149 0.727264 0.433807
0.620544 0.729523 0.439636
0.748016 0.731628 0.446564
0.852661 0.733459 0.454346
0.935120 0.735077 0.463104
0.070831 0.820892 0.434845
0.198730 0.828400 0.446594
0.341797 0.832062 0.453094
0.488281 0.834656 0.458984
0.628906 0.836853 0.465057
0.754456 0.838776 0.471771
0.857300 0.840454 0.479309
0.938599 0.842010 0.487457
0.109192 0.901154 0.450989
0.219330 0.911438 0.470337
0.355743 0.915955 0.479736
0.499146 0.918701 0.486542
0.637390 0.920807 0.493042
0.760956 0.922638 0.499756
0.861969 0.924194 0.506989
0.942200 0.925598 0.514862
0.000031 0.007355 0.426331
0.038544 0.045319 0.535767
0.250031 0.019897 0.517700
0.413635 0.017059 0.515717
0.565308 0.017761 0.517731
0.701813 0.019592 0.521362
0.816589 0.021912 0.526001
0.906250 0.024536 0.531464
0.006622 0.142944 0.505005
0.053223 0.188721 0.551300
0.263428 0.164276 0.530731
0.429840 0.159485 0.532257
0.585632 0.156494 0.539459
0.726166 0.153015 0.550629
0.843109 0.147766 0.565857
0.936371 0.138092 0.587921
0.016174 0.291016 0.517578
0.062439 0.337952 0.563324
0.273163 0.313171 0.541382
0.437622 0.309509 0.541412
0.589722 0.308746 0.545837
0.725861 0.308380 0.552612
0.838440 0.307922 0.561340
0.926453 0.306641 0.571960
0.024780 0.441132 0.531525
0.076813 0.485046 0.574402
0.284821 0.462006 0.553619
0.446869 0.459625 0.553467
0.597198 0.459686 0.557220
0.730835 0.460449 0.562744
0.841278 0.461121 0.569916
0.927460 0.461548 0.578308
0.032776 0.586426 0.547394
0.100677 0.621063 0.583282
0.296936 0.604492 0.567322
0.456909 0.603088 0.567780
0.605408 0.603729 0.571289
0.737274 0.604980 0.576477
0.845581 0.606354 0.582764
0.930267 0.607483 0.590118
0.040527 0.718384 0.565491
0.130615 0.740814 0.591858
0.310333 0.732330 0.582794
0.467621 0.732025 0.584076
0.614075 0.733124 0.587677
0.744141 0.734558 0.592651
0.850403 0.736053 0.598511
0.933807 0.737488 0.605316
0.047760 0.829010 0.585632
0.159363 0.840912 0.603058
0.324860 0.838165 0.599884
0.478760 0.838837 0.602142
0.623077 0.840088 0.606110
0.751099 0.841553 0.611023
0.855469 0.842987 0.616669
0.937653 0.844299 0.623108
0.054749 0.915619 0.607819
0.186279 0.920654 0.617096
0.340302 0.921112 0.618500
0.490662 0.922394 0.622009
0.632477 0.923828 0.626343
0.758392 0.925201 0.631256
0.860687 0.926575 0.636871
0.941650 0.927826 0.643097
0.000031 0.013763 0.545746
0.032867 0.047699 0.682617
0.206543 0.038086 0.680603
0.393768 0.024017 0.675659
0.552643 0.022034 0.674713
0.693481 0.022552 0.676239
0.811310 0.024139 0.679108
0.902802 0.026245 0.682800
0.003662 0.143402 0.657196
0.050262 0.189209 0.698517
0.222351 0.181061 0.694031
0.408142 0.167938 0.688171
0.570648 0.162689 0.691437
0.715881 0.157806 0.699677
0.836243 0.152008 0.711487
0.931152 0.142670 0.728821
0.014435 0.290741 0.668793
0.060608 0.337799 0.709290
0.234741 0.328827 0.703400
0.417053 0.317474 0.696472
0.576477 0.314026 0.697754
0.716858 0.312408 0.702057
0.832916 0.310974 0.708588
0.922699 0.309265 0.716705
0.023499 0.440887 0.680328
0.069641 0.487335 0.720154
0.247192 0.477264 0.712769
0.427246 0.467224 0.706146
0.584412 0.464844 0.706909
0.722565 0.464203 0.710144
0.836090 0.464081 0.715149
0.923950 0.464111 0.721344
0.031982 0.586304 0.692780
0.078094 0.629578 0.731964
0.260803 0.618286 0.722626
0.437805 0.610321 0.716888
0.593323 0.608551 0.717529
0.729462 0.608582 0.720490
0.840698 0.609222 0.724792
0.927124 0.609863 0.730164
0.040070 0.718536 0.706421
0.086151 0.756073 0.744843
0.276062 0.744049 0.733337
0.449310 0.738403 0.728729
0.602570 0.737488 0.729553
0.736694 0.737885 0.732361
0.845917 0.738739 0.736298
0.930878 0.739807 0.741211
0.047913 0.829407 0.721405
0.093964 0.858917 0.758942
0.292694 0.847198 0.744629
0.461426 0.843994 0.741547
0.612274 0.843719 0.742767
0.744385 0.844330 0.745605
0.851379 0.845306 0.749420
0.934967 0.846344 0.753967
0.055359 0.916107 0.737549
0.101471 0.940002 0.774170
0.310669 0.928223 0.756805
0.474152 0.926727 0.755341
0.622375 0.926971 0.757019
0.752136 0.927704 0.759857
0.857025 0.928680 0.763672
0.939270 0.929688 0.768036
0.000031 0.021667 0.650848
0.026184 0.050659 0.807129
0.109650 0.079529 0.831848
0.360138 0.037689 0.811279
0.534637 0.028595 0.809845
0.681702 0.027039 0.809418
0.803864 0.027435 0.810577
0.898071 0.028778 0.812561
0.000061 0.144287 0.788544
0.046844 0.189941 0.822021
0.129852 0.220093 0.843597
0.375641 0.180969 0.821716
0.550049 0.171326 0.820984
0.701447 0.164825 0.825378
0.826813 0.157928 0.833374
0.924194 0.148590 0.845337
0.012146 0.290771 0.798615
0.058533 0.337769 0.830933
0.146027 0.366608 0.850159
0.386261 0.329834 0.828796
0.557343 0.321838 0.826508
0.704590 0.317963 0.828400
0.824890 0.315521 0.832275
0.917389 0.313080 0.837769
0.021912 0.440613 0.807709
0.068054 0.487091 0.839142
0.164978 0.511292 0.855286
0.396942 0.479218 0.835968
0.566223 0.472137 0.833435
0.710754 0.469452 0.834442
0.828674 0.468170 0.837280
0.919128 0.467438 0.841278
0.030762 0.586090 0.816925
0.076904 0.629364 0.847656
0.184967 0.647247 0.860321
0.408630 0.621094 0.843506
0.575500 0.615387 0.841034
0.718140 0.613403 0.841797
0.833771 0.612946 0.844147
0.922516 0.612946 0.847504
0.039246 0.718414 0.826752
0.085327 0.755920 0.856689
0.207428 0.766571 0.865417
0.421021 0.747620 0.851410
0.585571 0.743347 0.849274
0.725891 0.742157 0.849976
0.839233 0.742065 0.852081
0.926483 0.742554 0.855072
0.047363 0.829437 0.837219
0.093414 0.858978 0.866272
0.230377 0.863434 0.871033
0.434174 0.851196 0.859802
0.595886 0.848419 0.858063
0.733948 0.847809 0.858917
0.845123 0.848022 0.860870
0.930817 0.848572 0.863617
0.055237 0.916290 0.848297
0.101318 0.940186 0.876526
0.254608 0.940430 0.877136
0.447968 0.932587 0.868591
0.606659 0.930847 0.867432
0.742218 0.930634 0.868378
0.851013 0.931030 0.870392
0.935303 0.931641 0.873047
0.000031 0.031555 0.737762
0.016815 0.055511 0.902435
0.066986 0.098572 0.929382
0.306091 0.060883 0.916107
0.508179 0.039032 0.913849
0.665863 0.033325 0.912476
0.793945 0.031982 0.912231
0.891815 0.032288 0.913055
0.000031 0.146729 0.881012
0.042511 0.191376 0.916626
0.089966 0.236938 0.941376
0.325958 0.201477 0.926178
0.521759 0.183319 0.921112
0.682617 0.173889 0.922577
0.814178 0.165863 0.927429
0.915222 0.156250 0.935547
0.009491 0.291077 0.899292
0.055847 0.338043 0.924347
0.102570 0.384766 0.948364
0.338715 0.349304 0.932312
0.531036 0.332764 0.926270
0.687653 0.325745 0.925903
0.814270 0.321625 0.927856
0.910431 0.318085 0.931458
0.019989 0.440491 0.906403
0.066132 0.486969 0.930939
0.112671 0.532471 0.954529
0.350861 0.497528 0.937836
0.540741 0.482513 0.931641
0.694824 0.476654 0.930695
0.818756 0.473724 0.931915
0.912689 0.471924 0.934387
0.029236 0.585846 0.913239
0.075378 0.629120 0.937439
0.121765 0.670776 0.960693
0.363647 0.637665 0.943268
0.550903 0.624756 0.937286
0.702667 0.619934 0.936218
0.824188 0.617920 0.937073
0.916321 0.616943 0.938995
0.038055 0.718170 0.920441
0.084106 0.755737 0.944244
0.130524 0.790833 0.967255
0.377594 0.761475 0.948822
0.561432 0.751373 0.943298
0.710876 0.747742 0.942230
0.830109 0.746368 0.942932
0.920532 0.745972 0.944672
0.046448 0.829346 0.928009
0.092529 0.858856 0.951477
0.138794 0.886108 0.974213
0.391968 0.861877 0.954681
0.572540 0.854675 0.949677
0.719452 0.852234 0.948761
0.836365 0.851379 0.949432
0.925079 0.851288 0.951050
0.054596 0.916260 0.936066
0.100739 0.940186 0.959229
0.147034 0.963013 0.981750
0.407745 0.941101 0.960754
0.583923 0.935974 0.956482
0.728271 0.934296 0.955719
0.842621 0.933807 0.956451
0.929871 0.933929 0.958008
0.000031 0.042603 0.809387
0.006195 0.061279 0.979645
0.057343 0.105347 1.000000
0.212433 0.104828 1.000000
0.463226 0.059418 0.996490
0.644989 0.041840 0.997528
0.780914 0.038147 0.996155
0.883850 0.036987 0.996063
0.000031 0.149933 0.953674
0.037506 0.193207 0.994904
0.093689 0.241364 1.000000
0.243286 0.243866 1.000000
0.481201 0.203033 1.000000
0.655365 0.188965 1.000000
0.792847 0.182281 1.000000
0.893585 0.180573 1.000000
0.006561 0.291565 0.980499
0.054901 0.338623 1.000000
0.117767 0.385956 1.000000
0.266724 0.389069 1.000000
0.494385 0.352814 1.000000
0.662109 0.341461 1.000000
0.794830 0.337158 1.000000
0.893158 0.337158 1.000000
0.017761 0.440582 0.986786
0.072968 0.485870 1.000000
0.142151 0.528717 1.000000
0.292694 0.531128 1.000000
0.509491 0.501282 1.000000
0.671082 0.492767 1.000000
0.799500 0.490479 1.000000
0.894897 0.492157 1.000000
0.027496 0.585632 0.992828
0.094116 0.624725 1.000000
0.170929 0.660492 1.000000
0.324768 0.661469 1.000000
0.528534 0.639832 1.000000
0.683594 0.634399 1.000000
0.806580 0.634277 1.000000
0.898102 0.637756 1.000000
0.036591 0.717987 0.999023
0.121002 0.746552 1.000000
0.207977 0.773346 1.000000
0.364594 0.773376 1.000000
0.554260 0.759827 1.000000
0.701172 0.757568 1.000000
0.817169 0.759491 1.000000
0.903442 0.764679 1.000000
0.058716 0.826050 1.000000
0.157532 0.844360 1.000000
0.257751 0.861694 1.000000
0.416199 0.861359 1.000000
0.589569 0.854858 1.000000
0.726837 0.855072 1.000000
0.833771 0.858398 1.000000
0.912842 0.864685 1.000000
0.093079 0.908051 1.000000
0.209381 0.918365 1.000000
0.327362 0.928406 1.000000
0.485352 0.928101 1.000000
0.641296 0.926056 1.000000
0.766327 0.927795 1.000000
0.861542 0.932037 1.000000
0.931183 0.939606 1.000000
