OldSummonersRiftV2_Winter_NightVersion/Map11/ASSETS/Maps/KitPieces/SRX/winterrift_recolor.CUBE
#Created by: Adobe Photoshop Export Color Lookup Plugin
TITLE "GdV3CiFXIAA4Xv3.jfif"
#LUT size
LUT_3D_SIZE 32
#data domain
DOMAIN_MIN 0.0 0.0 0.0
DOMAIN_MAX 1.0 1.0 1.0
#LUT data points
0.000000 0.000000 0.000000
0.033630 0.001984 0.001984
0.068848 0.003265 0.003662
0.104889 0.004150 0.005249
0.141388 0.004913 0.006409
0.177704 0.005676 0.008209
0.214355 0.006531 0.009735
0.251221 0.007172 0.011841
0.288025 0.007904 0.014099
0.325226 0.008514 0.016388
0.362061 0.009247 0.019287
0.399139 0.009918 0.021759
0.436066 0.010376 0.025482
0.472504 0.011017 0.028503
0.508636 0.011597 0.032043
0.544250 0.012115 0.035614
0.579224 0.012604 0.039642
0.613312 0.013031 0.044250
0.646484 0.013489 0.048767
0.678558 0.013885 0.053650
0.709656 0.014191 0.058807
0.739410 0.014648 0.063507
0.767853 0.014923 0.069092
0.794739 0.015228 0.074615
0.820129 0.015533 0.079895
0.843842 0.015869 0.085266
0.866180 0.016266 0.090332
0.887207 0.016632 0.095825
0.907135 0.016876 0.101379
0.926208 0.017242 0.106567
0.944489 0.017578 0.112061
0.962219 0.017853 0.117706
0.004883 0.034729 0.006165
0.038696 0.036407 0.009094
0.074005 0.037628 0.010864
0.111237 0.037872 0.012756
0.147552 0.038544 0.014709
0.185150 0.038666 0.016998
0.221771 0.039276 0.019318
0.259918 0.039062 0.022644
0.298035 0.038940 0.026093
0.337006 0.038300 0.030334
0.375732 0.037964 0.034302
0.415100 0.036957 0.039734
0.453430 0.036591 0.043793
0.491974 0.035614 0.049561
0.530457 0.034302 0.055695
0.566193 0.034485 0.059814
0.600677 0.034943 0.063873
0.634186 0.035461 0.067902
0.666779 0.035889 0.072968
0.698242 0.036346 0.077454
0.728577 0.036621 0.082520
0.757446 0.036987 0.088196
0.784943 0.037323 0.093201
0.810913 0.037659 0.098694
0.835205 0.037994 0.103851
0.858032 0.038330 0.109192
0.879547 0.038666 0.114502
0.899872 0.039001 0.119995
0.919189 0.039276 0.125397
0.937775 0.039673 0.130554
0.955750 0.040039 0.135834
0.973206 0.040314 0.141327
0.007782 0.070465 0.011566
0.042938 0.071686 0.013702
0.078033 0.072998 0.015594
0.114868 0.073456 0.017578
0.150452 0.074677 0.018982
0.187714 0.074829 0.021606
0.224976 0.075165 0.023865
0.262482 0.075317 0.026947
0.300934 0.075043 0.030426
0.339172 0.074890 0.034088
0.378235 0.074158 0.039093
0.416504 0.073944 0.042938
0.455750 0.072876 0.048309
0.493713 0.072266 0.053497
0.531921 0.071228 0.059540
0.570068 0.069611 0.066162
0.607208 0.068085 0.073059
0.643890 0.066101 0.080719
0.679108 0.064056 0.089203
0.713074 0.062134 0.097137
0.745880 0.059784 0.106049
0.774841 0.059357 0.112244
0.801422 0.059753 0.117676
0.826385 0.060028 0.123047
0.849731 0.060394 0.128235
0.871674 0.060760 0.133514
0.892487 0.061096 0.138367
0.912140 0.061432 0.143829
0.930969 0.061737 0.149200
0.949158 0.062103 0.154266
0.966797 0.062439 0.159821
0.984039 0.062775 0.165222
0.010406 0.106750 0.015808
0.045410 0.108063 0.017822
0.079895 0.109497 0.020599
0.116028 0.110443 0.021667
0.152802 0.110992 0.023376
0.188721 0.111938 0.025513
0.226624 0.111816 0.028473
0.263885 0.112213 0.031464
0.301025 0.112671 0.034149
0.338867 0.112823 0.037415
0.377380 0.112610 0.041138
0.415375 0.112518 0.045105
0.453613 0.112213 0.049011
0.492126 0.111267 0.054657
0.529114 0.110992 0.059418
0.566101 0.110321 0.064819
0.602905 0.108978 0.071899
0.638458 0.108063 0.077667
0.673553 0.106293 0.085785
0.707611 0.104431 0.093567
0.740479 0.102325 0.102051
0.771881 0.099945 0.111023
0.801941 0.097137 0.120789
0.829651 0.094482 0.130341
0.856110 0.091217 0.140625
0.881256 0.087402 0.151855
0.904480 0.084045 0.162567
0.924072 0.083801 0.168610
0.942444 0.084167 0.173950
0.960266 0.084534 0.178955
0.977661 0.084900 0.184113
0.994843 0.085205 0.189575
0.013397 0.142761 0.021027
0.046783 0.144623 0.024323
0.082764 0.145599 0.025452
0.117554 0.147034 0.027557
0.154114 0.147644 0.029785
0.191040 0.148102 0.031616
0.227783 0.148651 0.034180
0.264954 0.149231 0.036163
0.302673 0.149353 0.039215
0.340271 0.149750 0.042023
0.377777 0.150146 0.045074
0.415833 0.149963 0.049683
0.453857 0.149811 0.053314
0.490997 0.149750 0.057831
0.528259 0.149414 0.062225
0.564636 0.149048 0.067505
0.600861 0.148285 0.073395
0.635895 0.147644 0.079132
0.669769 0.147064 0.085266
0.703278 0.145721 0.092590
0.734955 0.144806 0.099182
0.765533 0.143372 0.107056
0.794830 0.141693 0.114594
0.822327 0.139984 0.122437
0.848114 0.137939 0.131104
0.872375 0.135834 0.139404
0.895660 0.132935 0.149567
0.917725 0.130066 0.159363
0.939270 0.126495 0.169891
0.960419 0.122162 0.181976
0.981201 0.117767 0.194000
1.000000 0.114807 0.207794
0.016541 0.178375 0.027802
0.049377 0.180695 0.030426
0.084717 0.181854 0.032532
0.120209 0.183105 0.034058
0.156464 0.183838 0.036194
0.192810 0.184723 0.037842
0.229401 0.185333 0.040222
0.266602 0.185730 0.042847
0.303894 0.186218 0.045532
0.341309 0.186615 0.048431
0.378967 0.186951 0.051453
0.416718 0.187012 0.055267
0.453979 0.187256 0.058807
0.491425 0.187134 0.062988
0.528320 0.187012 0.067627
0.564453 0.186920 0.072235
0.600189 0.186371 0.078278
0.634735 0.186096 0.083496
0.668457 0.185669 0.089020
0.701538 0.184784 0.095642
0.732819 0.184265 0.101379
0.763031 0.183411 0.107880
0.791870 0.182404 0.114471
0.818726 0.181488 0.121368
0.844147 0.180176 0.128510
0.868011 0.178772 0.136017
0.890625 0.177094 0.143890
0.911987 0.175537 0.151672
0.932526 0.173584 0.160034
0.952301 0.171692 0.168274
0.972046 0.168976 0.177673
0.991333 0.166229 0.187286
0.019012 0.214447 0.035431
0.052063 0.216705 0.037537
0.087738 0.217621 0.039948
0.122345 0.219330 0.041534
0.158478 0.220215 0.043182
0.194855 0.220886 0.045502
0.231293 0.221619 0.047913
0.268433 0.222168 0.050537
0.305267 0.222839 0.053192
0.342560 0.223389 0.055847
0.380371 0.223663 0.058960
0.417572 0.224121 0.061890
0.454956 0.224182 0.066101
0.491791 0.224426 0.069855
0.528442 0.224396 0.074341
0.564392 0.224426 0.078735
0.599945 0.224121 0.084351
0.634644 0.223846 0.089386
0.667969 0.223694 0.094452
0.700562 0.223297 0.100067
0.731903 0.222839 0.105682
0.761719 0.222473 0.110931
0.790222 0.221741 0.117218
0.817139 0.220886 0.123779
0.842316 0.220062 0.130280
0.865692 0.219360 0.136444
0.888153 0.218170 0.143555
0.909210 0.217194 0.150177
0.929504 0.215729 0.158051
0.948914 0.214508 0.165192
0.967957 0.212891 0.172791
0.986633 0.211243 0.180817
0.021973 0.250214 0.043884
0.055817 0.252167 0.045990
0.089478 0.253998 0.048767
0.124756 0.255280 0.050629
0.160309 0.256531 0.052216
0.196228 0.257538 0.054382
0.232849 0.258118 0.056915
0.269562 0.258850 0.059326
0.306610 0.259430 0.061920
0.344025 0.259888 0.064758
0.381409 0.260315 0.067841
0.418762 0.260834 0.070862
0.455933 0.261108 0.074493
0.492706 0.261292 0.078583
0.529236 0.261414 0.082733
0.565063 0.261566 0.086792
0.600128 0.261658 0.091217
0.634735 0.261414 0.096283
0.668121 0.261292 0.101135
0.700470 0.261230 0.105927
0.731659 0.260834 0.111572
0.761505 0.260529 0.116638
0.789703 0.260193 0.122162
0.816193 0.259796 0.127930
0.841278 0.259155 0.133850
0.864777 0.258484 0.139954
0.886841 0.257782 0.146179
0.907715 0.257080 0.152222
0.927734 0.256195 0.158875
0.946991 0.255188 0.165802
0.965790 0.254120 0.172607
0.984192 0.252991 0.179840
0.025177 0.285797 0.053619
0.059387 0.287598 0.055359
0.092346 0.289795 0.058502
0.127228 0.291290 0.060547
0.162445 0.292664 0.062256
0.198059 0.293732 0.064728
0.234619 0.294464 0.067139
0.271027 0.295471 0.069061
0.308411 0.295807 0.071838
0.345398 0.296417 0.075073
0.382507 0.297089 0.077728
0.419769 0.297607 0.080566
0.457001 0.297882 0.084106
0.493683 0.298187 0.087799
0.529907 0.298492 0.091583
0.565887 0.298706 0.095459
0.600952 0.298798 0.099609
0.634979 0.299011 0.104065
0.668365 0.298920 0.108643
0.700684 0.298859 0.113098
0.731659 0.298737 0.118164
0.761292 0.298615 0.122833
0.789520 0.298279 0.128113
0.815979 0.298096 0.133575
0.840851 0.297760 0.138885
0.864075 0.297394 0.144470
0.886108 0.296844 0.150421
0.906982 0.296265 0.156067
0.926819 0.295685 0.162201
0.946045 0.294800 0.168793
0.964539 0.294189 0.174805
0.982788 0.293274 0.181458
0.028412 0.321442 0.064056
0.062927 0.322968 0.066315
0.095520 0.325531 0.068695
0.129181 0.327393 0.071777
0.164490 0.328735 0.073669
0.199615 0.330078 0.075989
0.236328 0.330933 0.077393
0.272736 0.331879 0.079926
0.309814 0.332520 0.082367
0.346741 0.333191 0.085419
0.383911 0.333771 0.088043
0.421051 0.334381 0.090668
0.458160 0.334686 0.094208
0.494537 0.335358 0.097168
0.530884 0.335663 0.100739
0.566559 0.335815 0.104797
0.601715 0.336121 0.108307
0.635895 0.336182 0.112610
0.669067 0.336334 0.116791
0.701080 0.336456 0.121155
0.731995 0.336487 0.125610
0.761414 0.336548 0.130127
0.789520 0.336395 0.135010
0.815948 0.336243 0.139923
0.840820 0.335907 0.145050
0.863983 0.335724 0.150269
0.885803 0.335388 0.155914
0.906586 0.335052 0.161316
0.926392 0.334595 0.166779
0.945465 0.334015 0.173096
0.963898 0.333466 0.178894
0.982025 0.332825 0.184906
0.031494 0.357178 0.074890
0.065948 0.358765 0.077118
0.097839 0.361542 0.080170
0.131897 0.363342 0.082672
0.166809 0.364838 0.084686
0.201996 0.366180 0.087097
0.238007 0.367218 0.089294
0.274170 0.368408 0.090851
0.311249 0.369110 0.093170
0.348206 0.369720 0.096100
0.385345 0.370422 0.098602
0.422211 0.371155 0.101501
0.459320 0.371613 0.104401
0.495850 0.372101 0.107666
0.532043 0.372589 0.110657
0.567657 0.372864 0.114410
0.602631 0.373199 0.117706
0.636627 0.373474 0.121552
0.669708 0.373688 0.125458
0.701691 0.373932 0.129456
0.732574 0.374023 0.133759
0.761963 0.374054 0.138123
0.789978 0.374023 0.142792
0.816315 0.373993 0.147308
0.840912 0.373901 0.152283
0.864014 0.373871 0.156891
0.885803 0.373596 0.162201
0.906494 0.373352 0.167328
0.926239 0.373108 0.172485
0.945129 0.372681 0.178284
0.963562 0.372284 0.183838
0.981567 0.371857 0.189484
0.036896 0.391724 0.085297
0.069550 0.394196 0.088013
0.100769 0.397247 0.091309
0.133911 0.399567 0.093781
0.168549 0.401184 0.096252
0.204010 0.402466 0.098145
0.239746 0.403595 0.100403
0.275726 0.404755 0.102570
0.312866 0.405426 0.104950
0.349731 0.406311 0.106903
0.386536 0.407104 0.109619
0.423706 0.407684 0.112366
0.460571 0.408295 0.114838
0.497070 0.408844 0.117798
0.533112 0.409363 0.120941
0.568726 0.409821 0.124084
0.603607 0.410187 0.127411
0.637573 0.410583 0.130768
0.670624 0.410797 0.134796
0.702515 0.411072 0.138458
0.733215 0.411285 0.142365
0.762482 0.411407 0.146667
0.790405 0.411469 0.150818
0.816620 0.411621 0.155365
0.841278 0.411560 0.159882
0.864258 0.411591 0.164459
0.885986 0.411469 0.169281
0.906555 0.411377 0.174194
0.926147 0.411224 0.179321
0.945068 0.410950 0.184418
0.963409 0.410736 0.189606
0.981384 0.410370 0.195160
0.041168 0.426819 0.095825
0.073456 0.429413 0.098633
0.104523 0.432587 0.101898
0.136566 0.435272 0.104889
0.170837 0.437042 0.107361
0.205811 0.438568 0.109344
0.241699 0.439728 0.111298
0.277771 0.440826 0.113586
0.314575 0.441681 0.115753
0.351166 0.442688 0.117828
0.388031 0.443451 0.120453
0.425171 0.444153 0.122742
0.461731 0.444885 0.125641
0.498444 0.445312 0.128357
0.534332 0.445984 0.131287
0.569702 0.446503 0.134155
0.604614 0.446899 0.137482
0.638397 0.447388 0.140900
0.671539 0.447632 0.144135
0.703308 0.447906 0.148102
0.733917 0.448212 0.151764
0.763184 0.448486 0.155365
0.790985 0.448578 0.159729
0.817017 0.448883 0.163391
0.841553 0.448883 0.167938
0.864624 0.448883 0.172424
0.886261 0.448944 0.176758
0.906769 0.448944 0.181458
0.926361 0.448853 0.186401
0.945221 0.448761 0.191101
0.963440 0.448578 0.196228
0.981415 0.448303 0.201599
0.045105 0.461823 0.106445
0.078247 0.463989 0.109070
0.107361 0.467987 0.112946
0.139679 0.470642 0.115601
0.173492 0.472534 0.118530
0.208099 0.474243 0.120422
0.243835 0.475433 0.122589
0.279724 0.476593 0.124786
0.316132 0.477631 0.126984
0.352844 0.478577 0.129181
0.389709 0.479431 0.131317
0.426544 0.480225 0.133820
0.463226 0.480927 0.136322
0.499664 0.481628 0.138855
0.535675 0.482147 0.141663
0.571106 0.482666 0.144501
0.605804 0.483124 0.147766
0.639557 0.483612 0.150848
0.672333 0.484100 0.154022
0.704254 0.484406 0.157623
0.734802 0.484772 0.161072
0.763947 0.485046 0.164734
0.791626 0.485291 0.168610
0.817719 0.485504 0.172516
0.842133 0.485657 0.176544
0.864960 0.485809 0.180847
0.886627 0.485870 0.185028
0.907104 0.485931 0.189514
0.926636 0.485931 0.194183
0.945435 0.485931 0.198669
0.963593 0.485840 0.203339
0.981445 0.485779 0.208374
0.049683 0.496155 0.116760
0.081421 0.498962 0.119659
0.110565 0.502899 0.123871
0.142761 0.505524 0.126709
0.175995 0.507782 0.129456
0.210693 0.509399 0.131592
0.245819 0.510803 0.133942
0.281555 0.512085 0.136169
0.317841 0.513123 0.138275
0.354492 0.514130 0.140411
0.391388 0.514923 0.142548
0.428101 0.515778 0.144928
0.464752 0.516541 0.147339
0.501038 0.517212 0.149719
0.536987 0.517822 0.152466
0.572296 0.518463 0.155121
0.606781 0.519012 0.158173
0.640594 0.519470 0.161133
0.673492 0.519928 0.164276
0.705048 0.520416 0.167572
0.735565 0.520752 0.170868
0.764679 0.521057 0.174408
0.792267 0.521423 0.177826
0.818298 0.521729 0.181793
0.842651 0.521942 0.185608
0.865509 0.522095 0.189575
0.887024 0.522278 0.193665
0.907471 0.522308 0.197968
0.926941 0.522430 0.202393
0.945709 0.522461 0.206787
0.963867 0.522491 0.211273
0.981659 0.522461 0.216003
0.055054 0.529755 0.126740
0.086090 0.532837 0.129852
0.113831 0.537323 0.134583
0.145813 0.540039 0.137695
0.178680 0.542358 0.140503
0.213043 0.544098 0.142761
0.247986 0.545593 0.145081
0.283356 0.546997 0.147278
0.319794 0.548065 0.149506
0.356262 0.549103 0.151611
0.393066 0.549927 0.153961
0.429932 0.550751 0.156006
0.466248 0.551575 0.158325
0.502533 0.552307 0.160583
0.538239 0.553009 0.163177
0.573517 0.553619 0.166016
0.608093 0.554199 0.168793
0.641632 0.554779 0.171783
0.674500 0.555267 0.174561
0.706116 0.555695 0.177551
0.736450 0.556091 0.181122
0.765533 0.556519 0.184235
0.793091 0.556854 0.187744
0.818970 0.557190 0.191223
0.843262 0.557434 0.194885
0.865997 0.557648 0.198914
0.887512 0.557892 0.202606
0.907928 0.558075 0.206879
0.927277 0.558289 0.210968
0.946045 0.558319 0.215210
0.964172 0.558380 0.219635
0.981873 0.558533 0.223907
0.061157 0.562592 0.136230
0.090424 0.566345 0.140686
0.118256 0.570679 0.145142
0.148773 0.573944 0.148651
0.181580 0.576294 0.151398
0.215576 0.578186 0.154053
0.250336 0.579742 0.156433
0.285553 0.581207 0.158630
0.321960 0.582184 0.160797
0.358276 0.583252 0.162933
0.394714 0.584351 0.165009
0.431396 0.585144 0.167206
0.467834 0.585999 0.169495
0.503998 0.586761 0.171722
0.539673 0.587463 0.174164
0.574890 0.588074 0.176758
0.609406 0.588715 0.179626
0.642975 0.589294 0.182251
0.675659 0.589813 0.185150
0.707153 0.590271 0.188141
0.737457 0.590759 0.191193
0.766449 0.591217 0.194183
0.793884 0.591553 0.197784
0.819702 0.591949 0.201080
0.843903 0.592316 0.204651
0.866638 0.592590 0.208221
0.888031 0.592804 0.212006
0.908356 0.593048 0.215942
0.927734 0.593262 0.219910
0.946381 0.593414 0.223938
0.964508 0.593567 0.228058
0.982208 0.593597 0.232422
0.066864 0.594940 0.146332
0.094879 0.599152 0.150726
0.121613 0.603821 0.156158
0.152222 0.606995 0.159729
0.184296 0.609558 0.162598
0.218018 0.611481 0.165314
0.252716 0.613037 0.167755
0.287994 0.614441 0.169952
0.323639 0.615753 0.172150
0.360107 0.616852 0.174255
0.396759 0.617767 0.176331
0.433136 0.618683 0.178528
0.469574 0.619537 0.180542
0.505554 0.620331 0.182892
0.541260 0.621002 0.185364
0.576294 0.621735 0.187744
0.610626 0.622437 0.190125
0.644165 0.623047 0.192902
0.676727 0.623535 0.195831
0.708252 0.624054 0.198700
0.738495 0.624542 0.201508
0.767365 0.624969 0.204651
0.794708 0.625427 0.207825
0.820496 0.625793 0.211212
0.844574 0.626129 0.214569
0.867249 0.626465 0.218079
0.888611 0.626770 0.221710
0.908875 0.627014 0.225464
0.928223 0.627289 0.229370
0.946869 0.627502 0.233185
0.964935 0.627686 0.237091
0.982605 0.627838 0.241302
0.071991 0.626801 0.156464
0.099518 0.631104 0.161194
0.126068 0.635803 0.166504
0.155792 0.639191 0.170441
0.187408 0.641876 0.173737
0.220825 0.643890 0.176331
0.254913 0.645721 0.178802
0.290161 0.647064 0.181061
0.325897 0.648285 0.183258
0.362122 0.649384 0.185394
0.398468 0.650421 0.187378
0.434967 0.651306 0.189697
0.471039 0.652191 0.192047
0.507111 0.653046 0.194031
0.542694 0.653748 0.196350
0.577759 0.654449 0.198700
0.612030 0.655060 0.201355
0.645386 0.655701 0.204041
0.677979 0.656281 0.206543
0.709381 0.656799 0.209381
0.739502 0.657288 0.212128
0.768311 0.657806 0.215210
0.795624 0.658264 0.218079
0.821289 0.658661 0.221344
0.845306 0.659088 0.224548
0.867920 0.659393 0.228088
0.889252 0.659760 0.231415
0.909454 0.660034 0.235016
0.928711 0.660309 0.238678
0.947296 0.660553 0.242401
0.965302 0.660767 0.246307
0.983002 0.661011 0.250214
0.077789 0.657593 0.166229
0.104401 0.662079 0.171692
0.130646 0.666687 0.176971
0.159760 0.670319 0.181061
0.190643 0.673126 0.184875
0.223541 0.675385 0.187653
0.257782 0.677063 0.190002
0.292603 0.678558 0.192444
0.328400 0.679779 0.194580
0.364166 0.681030 0.196716
0.400360 0.682068 0.198792
0.436584 0.683014 0.200989
0.472900 0.683838 0.203094
0.508789 0.684631 0.205170
0.544159 0.685425 0.207520
0.579041 0.686127 0.209778
0.613373 0.686768 0.212463
0.646729 0.687408 0.214844
0.679138 0.687988 0.217468
0.710449 0.688538 0.220154
0.740479 0.689117 0.222809
0.769257 0.689545 0.225952
0.796417 0.690033 0.228699
0.822083 0.690460 0.231689
0.846039 0.690887 0.234802
0.868561 0.691284 0.238037
0.889832 0.691589 0.241608
0.909973 0.691925 0.245056
0.929230 0.692261 0.248474
0.947784 0.692535 0.252045
0.965820 0.692749 0.255676
0.983490 0.692993 0.259583
0.083527 0.687439 0.176270
0.109467 0.692078 0.181824
0.134583 0.697021 0.187561
0.163116 0.700653 0.192078
0.194092 0.703400 0.195709
0.226471 0.705688 0.198700
0.260468 0.707367 0.201294
0.295074 0.708954 0.203766
0.330719 0.710175 0.205780
0.366180 0.711548 0.207977
0.402466 0.712555 0.210022
0.438507 0.713470 0.212341
0.474548 0.714355 0.214478
0.510376 0.715179 0.216614
0.545776 0.715912 0.218842
0.580536 0.716614 0.221252
0.614838 0.717255 0.223450
0.648102 0.717926 0.225861
0.680450 0.718536 0.228363
0.711700 0.719086 0.231018
0.741608 0.719666 0.233612
0.770264 0.720123 0.236542
0.797363 0.720612 0.239288
0.822906 0.721039 0.242310
0.846832 0.721466 0.245392
0.869232 0.721893 0.248444
0.890472 0.722229 0.251678
0.910583 0.722565 0.255066
0.929840 0.722900 0.258423
0.948334 0.723206 0.261963
0.966278 0.723511 0.265625
0.983917 0.723755 0.269104
0.089203 0.716309 0.186127
0.113922 0.721252 0.192078
0.139099 0.725952 0.198090
0.166962 0.729706 0.202759
0.197601 0.732483 0.206360
0.229858 0.734711 0.209595
0.263031 0.736664 0.212494
0.297516 0.738190 0.214905
0.332855 0.739471 0.217255
0.368530 0.740662 0.219391
0.404449 0.741730 0.221497
0.440460 0.742676 0.223694
0.476532 0.743500 0.225739
0.512115 0.744415 0.227936
0.547455 0.745148 0.230103
0.582153 0.745880 0.232269
0.616272 0.746490 0.234772
0.649475 0.747131 0.237061
0.681610 0.747772 0.239502
0.712860 0.748291 0.242157
0.742676 0.748901 0.244598
0.771301 0.749451 0.247223
0.798401 0.749878 0.250061
0.823853 0.750305 0.253021
0.847626 0.750763 0.255890
0.869995 0.751190 0.258881
0.891174 0.751556 0.262085
0.911194 0.751923 0.265289
0.930359 0.752258 0.268646
0.948822 0.752563 0.271942
0.966858 0.752838 0.275391
0.984406 0.753113 0.278992
0.094116 0.744324 0.196472
0.119171 0.748932 0.202362
0.143402 0.753784 0.208649
0.171204 0.757416 0.213348
0.200897 0.760345 0.217468
0.232971 0.762634 0.220673
0.265961 0.764557 0.223602
0.300323 0.766052 0.226166
0.335358 0.767365 0.228516
0.370789 0.768585 0.230682
0.406708 0.769592 0.232788
0.442413 0.770630 0.234985
0.478394 0.771454 0.237091
0.513855 0.772308 0.239227
0.549042 0.773041 0.241364
0.583710 0.773743 0.243530
0.617767 0.774414 0.246033
0.650848 0.775024 0.248260
0.682983 0.775635 0.250641
0.714020 0.776215 0.253113
0.743896 0.776703 0.255676
0.772339 0.777222 0.258270
0.799286 0.777710 0.260834
0.824707 0.778168 0.263763
0.848450 0.778595 0.266571
0.870728 0.779053 0.269623
0.891815 0.779419 0.272491
0.911835 0.779755 0.275696
0.930969 0.780121 0.278961
0.949432 0.780457 0.282166
0.967377 0.780731 0.285492
0.984924 0.781036 0.288971
0.100677 0.770599 0.206055
0.124390 0.775452 0.212494
0.147614 0.780365 0.219360
0.174774 0.784058 0.224274
0.204681 0.786774 0.228241
0.236053 0.789062 0.231750
0.268921 0.790924 0.234772
0.303070 0.792450 0.237427
0.337646 0.793823 0.239868
0.373169 0.795013 0.242157
0.408844 0.796051 0.244232
0.444427 0.797028 0.246460
0.480286 0.797882 0.248413
0.515625 0.798706 0.250641
0.550873 0.799377 0.252777
0.585449 0.800079 0.254944
0.619171 0.800781 0.257080
0.652374 0.801361 0.259521
0.684326 0.802002 0.261963
0.715302 0.802551 0.264252
0.745026 0.803070 0.266693
0.773407 0.803558 0.269196
0.800293 0.804047 0.271912
0.825562 0.804443 0.274719
0.849274 0.804901 0.277466
0.871552 0.805298 0.280365
0.892517 0.805725 0.283264
0.912476 0.806091 0.286285
0.931641 0.806396 0.289490
0.949982 0.806763 0.292603
0.967896 0.807098 0.295776
0.985474 0.807343 0.299225
0.106201 0.795898 0.216125
0.128937 0.800720 0.222992
0.152191 0.805450 0.229706
0.179077 0.808960 0.234802
0.208038 0.811859 0.239349
0.239380 0.814026 0.242798
0.272003 0.815887 0.245758
0.305908 0.817383 0.248474
0.340302 0.818756 0.251068
0.375549 0.819855 0.253296
0.411163 0.820862 0.255463
0.446655 0.821838 0.257751
0.482269 0.822632 0.259949
0.517609 0.823486 0.261993
0.552704 0.824158 0.264099
0.587128 0.824860 0.266235
0.620667 0.825531 0.268585
0.653778 0.826111 0.270844
0.685699 0.826660 0.273132
0.716553 0.827240 0.275452
0.746216 0.827728 0.277863
0.774536 0.828217 0.280548
0.801300 0.828735 0.283020
0.826508 0.829163 0.285645
0.850098 0.829559 0.288239
0.872284 0.829956 0.291199
0.893219 0.830353 0.294037
0.913147 0.830688 0.296967
0.932220 0.831085 0.299957
0.950592 0.831360 0.303009
0.968475 0.831726 0.306152
0.985992 0.832001 0.309448
0.111725 0.819763 0.226288
0.134094 0.824463 0.233246
0.157166 0.828857 0.240112
0.182983 0.832520 0.245636
0.211853 0.835205 0.250153
0.242584 0.837463 0.253784
0.275085 0.839264 0.257050
0.308746 0.840729 0.259857
0.343109 0.842041 0.262390
0.377899 0.843231 0.264771
0.413391 0.844177 0.266998
0.448792 0.845123 0.269196
0.484283 0.845947 0.271210
0.519531 0.846680 0.273468
0.554382 0.847412 0.275604
0.588745 0.848083 0.277710
0.622528 0.848694 0.279938
0.655243 0.849304 0.282135
0.687134 0.849823 0.284546
0.717957 0.850372 0.286774
0.747498 0.850891 0.289062
0.775635 0.851379 0.291656
0.802368 0.851807 0.294098
0.827454 0.852234 0.296753
0.850952 0.852631 0.299377
0.873077 0.853088 0.302216
0.894012 0.853455 0.304962
0.913879 0.853821 0.307800
0.932892 0.854126 0.310791
0.951202 0.854492 0.313721
0.969055 0.854797 0.316742
0.986572 0.855103 0.319977
0.116821 0.842377 0.236359
0.139404 0.846680 0.243408
0.161865 0.851044 0.250366
0.187531 0.854492 0.256317
0.215820 0.857208 0.260895
0.246338 0.859375 0.264832
0.278320 0.861176 0.268219
0.311432 0.862732 0.270905
0.345886 0.863922 0.273468
0.380615 0.865082 0.275940
0.415619 0.866119 0.278351
0.451080 0.867004 0.280640
0.486389 0.867798 0.282745
0.521484 0.868561 0.284973
0.556183 0.869263 0.287018
0.590424 0.869904 0.289276
0.624054 0.870483 0.291321
0.656738 0.871063 0.293579
0.688507 0.871643 0.295868
0.719208 0.872131 0.298187
0.748718 0.872620 0.300507
0.776794 0.873108 0.302887
0.803436 0.873535 0.305389
0.828400 0.873993 0.307922
0.851807 0.874390 0.310516
0.873901 0.874786 0.313080
0.894714 0.875153 0.315918
0.914581 0.875488 0.318695
0.933502 0.875854 0.321411
0.951874 0.876190 0.324493
0.969666 0.876495 0.327545
0.987152 0.876770 0.330536
0.123016 0.863312 0.246155
0.144592 0.867676 0.253601
0.166321 0.872009 0.260925
0.191772 0.875305 0.266968
0.219818 0.877930 0.271729
0.250000 0.880066 0.275787
0.281525 0.881927 0.279327
0.314728 0.883362 0.282013
0.348480 0.884705 0.284821
0.383270 0.885742 0.287415
0.418274 0.886688 0.289703
0.453369 0.887604 0.292023
0.488403 0.888458 0.294250
0.523499 0.889160 0.296478
0.558105 0.889832 0.298492
0.592316 0.890503 0.300720
0.625763 0.891083 0.302795
0.658325 0.891663 0.305023
